src/lib/packages/icons/src/assets/filled/home-heart.svg

<svg width="24" height="24" viewBox="0 0 24 24" fill="none" xmlns="http://www.w3.org/2000/svg">
<path fill-rule="evenodd" clip-rule="evenodd" d="M19.5699 8.58608L13.606 3.58498C12.677 2.80598 11.3219 2.80598 10.3929 3.58498L4.42896 8.58608C3.52296 9.34608 2.99902 9.65302 2.99902 11.651V18C2.99902 20 3.99902 21 5.99902 21H17.999C19.999 21 20.999 20 20.999 18V11.651C21 9.65202 20.4769 9.34608 19.5699 8.58608ZM15.925 13.293C15.403 15.962 12 17.5 12 17.5C12 17.5 8.59695 15.963 8.07495 13.293C7.75495 11.656 8.45406 10.008 10.2321 10C11.5561 9.99402 12 11.318 12 11.318C12 11.318 12.4439 9.99302 13.7679 10C15.5489 10.009 16.245 11.656 15.925 13.293Z" fill="currentColor"/>
</svg>

<svg xmlns="http://www.w3.org/2000/svg" width="24" height="24" fill="none"><path fill="currentColor" fill-rule="evenodd" d="m19.57 8.586-5.964-5.001a2.5 2.5 0 0 0-3.213 0L4.429 8.586c-.906.76-1.43 1.067-1.43 3.065V18c0 2 1 3 3 3h12c2 0 3-1 3-3v-6.349c.001-1.999-.522-2.305-1.43-3.065Zm-3.645 4.707C15.403 15.962 12 17.5 12 17.5s-3.403-1.537-3.925-4.207c-.32-1.637.38-3.285 2.157-3.293C11.556 9.994 12 11.318 12 11.318s.444-1.325 1.768-1.318c1.78.009 2.477 1.656 2.157 3.293Z" clip-rule="evenodd"/></svg>
